X:632
T:John Spence of Uyeasound
C:Joe Buchanan's Scottish Tome - Page 188.3
I:188 3
Z:Carl Allison
R:Reel
L:1/8
M:4/4
K:A
A2 | c2 ce dcBA | ceef a2 AB | c2 ce dcBA | cBBc B2 AB |
c2 ce dcBA | ceef a2 ea | f2 df e2 ce | dBGB A2 :|
cB | A2 a2 c2 Bc | A2 ce f2 e2 | ed c2 Ac | dcBA BdcB |
A2 a2 c2 Bc | A2 ce f2 e2 | f2 df e2 ce | dBGB A2 :|

